storage/app/icons/phosphoricons/light/ranking-light.svg

<svg xmlns="http://www.w3.org/2000/svg" fill="currentColor" viewBox="0 0 256 256"><path d="M114.31 101.9a6 6 0 0 1 3.79-7.59l12-4A6 6 0 0 1 138 96v40a6 6 0 0 1-12 0v-31.68l-4.1 1.37a6 6 0 0 1-7.59-3.79M246 208a6 6 0 0 1-6 6H16a6 6 0 0 1 0-12h10v-98a14 14 0 0 1 14-14h42V56a14 14 0 0 1 14-14h64a14 14 0 0 1 14 14v74h42a14 14 0 0 1 14 14v58h10a6 6 0 0 1 6 6m-72-66v60h44v-58a2 2 0 0 0-2-2Zm-80 60h68V56a2 2 0 0 0-2-2H96a2 2 0 0 0-2 2Zm-56 0h44V102H40a2 2 0 0 0-2 2Z"/></svg>

<svg xmlns="http://www.w3.org/2000/svg" viewBox="0 0 256 256" fill="currentColor"><path d="M114.31,101.9a6,6,0,0,1,3.79-7.59l12-4A6,6,0,0,1,138,96v40a6,6,0,0,1-12,0V104.32l-4.1,1.37A6,6,0,0,1,114.31,101.9ZM246,208a6,6,0,0,1-6,6H16a6,6,0,0,1,0-12H26V104A14,14,0,0,1,40,90H82V56A14,14,0,0,1,96,42h64a14,14,0,0,1,14,14v74h42a14,14,0,0,1,14,14v58h10A6,6,0,0,1,246,208Zm-72-66v60h44V144a2,2,0,0,0-2-2ZM94,202h68V56a2,2,0,0,0-2-2H96a2,2,0,0,0-2,2Zm-56,0H82V102H40a2,2,0,0,0-2,2Z"/></svg>
